src/icons/matlab.svg

<svg width="16" height="16" viewBox="0 0 16 16" fill="none" xmlns="http://www.w3.org/2000/svg">
<path d="M4.878 7.5L2 8.505L4.225 10L6 8.33L4.878 7.5Z" fill="#89DDFF"/>
<path d="M10.19 2.80499C9.93 2.83899 10.266 2.51999 9.895 2.80499C9.54 3.07799 8.517 4.70299 7.971 5.24999C7.484 5.73599 7.291 5.47999 6.786 5.88599C6.28 6.29299 5.5 7.10599 5.5 7.10599L6.76 7.99999L8.76 5.36199C9.231 4.73999 9.226 4.65799 9.483 4.00399C9.609 3.68399 9.833 3.43899 10.03 3.13799C10.276 2.76199 10.36 2.78299 10.19 2.80499Z" fill="#69A7D3"/>
<path d="M10.181 2.5C9.598 2.496 9.024 5.063 8.026 7.032C7.01 9.04 5 10.334 5 10.334C5.339 10.488 5.647 10.426 6.012 10.771C6.262 11.073 6.983 12.563 7.414 13.5C7.414 13.5 7.767 13.308 8.216 12.983C8.664 12.658 9.206 12.2 9.584 11.67C10.086 10.966 10.478 10.53 10.81 10.264C11.142 9.999 11.414 9.904 11.676 9.881C12.613 9.8 14 11.483 14 11.483C14 11.483 11.097 2.506 10.181 2.5Z" fill="#FC8289"/>
</svg>

<svg xmlns="http://www.w3.org/2000/svg" width="16" height="16" fill="none"><path fill="#89DDFF" d="M4.878 7.5 2 8.505 4.225 10 6 8.33z"/><path fill="#69A7D3" d="M10.19 2.805c-.26.034.076-.285-.295 0-.355.273-1.378 1.898-1.924 2.445-.487.486-.68.23-1.185.636-.506.407-1.286 1.22-1.286 1.22L6.76 8l2-2.638c.471-.622.466-.704.723-1.358.126-.32.35-.565.547-.866.246-.376.33-.355.16-.333"/><path fill="#FC8289" d="M10.181 2.5c-.583-.004-1.157 2.563-2.155 4.532C7.01 9.04 5 10.334 5 10.334c.339.154.647.092 1.012.437.25.302.971 1.792 1.402 2.729 0 0 .353-.192.802-.517.448-.325.99-.783 1.368-1.313.502-.704.894-1.14 1.226-1.406.332-.265.604-.36.866-.383C12.613 9.8 14 11.483 14 11.483S11.097 2.506 10.181 2.5"/></svg>
